X: 40196
T: Tin House
R: jig
M: 6/8
K: Dmajor
|:E|DFA c2 d-|d cd AFD|GAB AFD|EFD B,DE|
DFA c2 d-|d cd AFD|GAB d2 e-|e de f2:|
|:a|bae fed|AB/c/d dcd|ede fef|afe fea|
bae fed|AB/c/d dcd-|d AD BAF|EFD D2:|

